src/Pure/16/symbolic/actions/pointer-drag-symbolic.svg

<?xml version="1.0" encoding="UTF-8" standalone="no"?>
<svg
   width="20"
   height="20"
   version="1.1"
   id="svg1"
   sodipodi:docname="pointer-drag-symbolic.svg"
   inkscape:version="1.4.2 (ebf0e940d0, 2025-05-08)"
   xmlns:inkscape="http://www.inkscape.org/namespaces/inkscape"
   xmlns:sodipodi="http://sodipodi.sourceforge.net/DTD/sodipodi-0.dtd"
   xmlns="http://www.w3.org/2000/svg"
   xmlns:svg="http://www.w3.org/2000/svg">
  <defs
     id="defs1">
     <style
        id="current-color-scheme"
        type="text/css">
        .ColorScheme-Text { color:#363636; }
     </style>
  </defs>
  <sodipodi:namedview
     id="namedview1"
     pagecolor="#ffffff"
     bordercolor="#000000"
     borderopacity="0.25"
     inkscape:showpageshadow="2"
     inkscape:pageopacity="0.0"
     inkscape:pagecheckerboard="0"
     inkscape:deskcolor="#d1d1d1"
     inkscape:zoom="39.75"
     inkscape:cx="10"
     inkscape:cy="7.836478"
     inkscape:window-width="1920"
     inkscape:window-height="1010"
     inkscape:window-x="0"
     inkscape:window-y="0"
     inkscape:window-maximized="1"
     inkscape:current-layer="svg1" />
  <path
     id="path1"
     style="fill:currentColor"
     class="ColorScheme-Text"
     d="M 10.705078,1.671875 C 9.8685581,1.74657 8.8869125,1.5353069 8.2578125,2.2480469 8.0785625,2.7511469 7.86674,2.9777444 7.3125,2.8652344 6.51868,2.8141574 5.6106,2.9190159 5.125,3.6386719 4.57009,4.4696319 4.8113225,5.4948406 4.7578125,6.4316406 V 7.9335938 C 4.2480925,7.6156238 3.6258937,7.8015331 3.0585938,7.7519531 2.6157638,7.7312281 2.1775244,7.777107 1.7402344,7.84375 c 0.056931,2.6859 0.073737,5.373294 0.1210937,8.058594 0.093691,1.3023 1.2320219,2.404828 2.5449219,2.423828 0.63295,0.0151 1.4823094,0.0068 2.2246094,0.01172 3.2218,-0.01207 6.4461156,0.04985 9.6660156,-0.05664 1.1622,-0.12022 2.213313,-1.188484 2.070313,-2.396484 V 6.4042969 C 17.660377,5.4636169 16.551894,4.6233844 15.308594,4.8339844 15.009044,4.3804144 14.822511,3.3608562 14.082031,3.0351562 13.727171,2.7441162 13.242476,2.9253869 12.822266,2.8730469 12.524826,2.8003649 11.966365,3.0655838 11.953125,2.6210938 11.795775,2.0995738 11.237838,1.712525 10.705078,1.671875 Z m -0.105469,1.5039062 c 0.164486,0.2714714 0.182773,0.7537482 0.21875,1.125 l 0.002,0.00195 0.002,0.00195 h 0.002 c 0.0046,0.00194 0.01277,0.0042 0.01758,0.00586 h 0.002 l 0.002,0.00195 c -0.0091,-1.732e-4 -0.01824,1.732e-4 -0.02734,0 L 11.3125,10.212891 11.976562,4.3710938 13.322266,4.375 c 0.53608,0.38955 0.412987,1.1404563 0.554687,1.7226562 -0.01113,0.067472 0.0064,0.096045 0.01563,0.1367188 h -0.002 l 0.01172,0.085937 0.482422,3.8652345 0.664062,-3.919922 c 0.57404,-0.037127 1.157694,0.038515 1.558594,0.5019531 0.40964,0.21687 0.215636,0.6889638 0.259766,1.0585938 v 8.3417971 c -0.337061,0.96368 -1.6,0.548266 -2.375,0.660156 -3.3705,0.01308 -6.7424286,0.03383 -10.1113286,-0.01367 -0.97567,-0.02828 -1.1419156,-1.069997 -1.0410156,-1.841797 -0.011641,-1.9071 -0.044744,-3.813903 -0.078125,-5.7207029 0.3263599,0.00646 0.6759612,-0.012758 0.9882812,0.00977 0.49388,0.9152202 0.4846225,2.0012252 0.5078125,3.0156252 0.49264,-0.0068 1.0434,0.03983 1.5,0 0.00915,-2.5196003 -0.018438,-5.039994 0.013672,-7.558594 0.1049,-0.5199 0.7307681,-0.3091556 1.1113281,-0.3535156 H 8.0585938 L 8.546875,10.212891 9.2167969,4.3359375 h -0.00391 C 9.2438386,3.9531075 9.0622575,3.4400569 9.4609375,3.2167969 Z"
     sodipodi:nodetypes="ccccccccccccccccccccccccccccccccccccccccccccccccccccccc" />
</svg>

<svg width="20" height="20" version="1.1" xmlns="http://www.w3.org/2000/svg">
 <path d="m10.705 1.6719c-0.83652 0.074695-1.8182-0.13657-2.4473 0.57617-0.17925 0.5031-0.39107 0.7297-0.94531 0.61719-0.79382-0.051077-1.7019 0.053784-2.1875 0.77344-0.55491 0.83096-0.31368 1.8562-0.36719 2.793v1.502c-0.50972-0.31797-1.1319-0.13206-1.6992-0.18164-0.44283-0.020725-0.88111 0.025154-1.3184 0.091797 0.056931 2.6859 0.073733 5.3733 0.12109 8.0586 0.093691 1.3023 1.232 2.4048 2.5449 2.4238 0.63295 0.0151 1.4823 0.006779 2.2246 0.011719 3.2218-0.01207 6.4461 0.049849 9.666-0.056641 1.1622-0.12022 2.2133-1.1885 2.0703-2.3965v-9.4805c-0.70681-0.94068-1.8153-1.7809-3.0586-1.5703-0.29955-0.45357-0.48612-1.4731-1.2266-1.7988-0.35486-0.29104-0.83959-0.10977-1.2598-0.16211-0.29744-0.072682-0.8559 0.19254-0.86914-0.25195-0.15735-0.52152-0.71524-0.90857-1.248-0.94922zm-0.10547 1.5039c0.16452 0.27146 0.18277 0.75372 0.21875 1.125 0.006556 0.0068963 0.019796 0.0059113 0.027344 0.011719-0.009105-1.732e-4 -0.018238 1.732e-4 -0.027344 0l0.49414 5.9004 0.66406-5.8418 1.3457 0.0039062c0.53608 0.38955 0.41299 1.1405 0.55469 1.7227-0.011127 0.067472 0.006397 0.096046 0.015625 0.13672-6.5e-4 -8.3e-6 -0.001302 8.3e-6 -0.001953 0l0.011719 0.085938 0.48242 3.8652 0.66406-3.9199c0.57404-0.037127 1.1577 0.038512 1.5586 0.50195 0.40964 0.21687 0.21564 0.68897 0.25977 1.0586v8.3418c-0.33706 0.96368-1.6 0.54827-2.375 0.66016-3.3705 0.01308-6.7421 0.033828-10.111-0.013672-0.97567-0.02828-1.1419-1.07-1.041-1.8418-0.011641-1.9071-0.044744-3.8139-0.078125-5.7207 0.32636 0.00646 0.67596-0.012758 0.98828 0.0097657 0.49388 0.91522 0.48462 2.0012 0.50781 3.0156 0.49264-0.0068 1.0434 0.03983 1.5 0 0.0091468-2.5196-0.018438-5.04 0.013672-7.5586 0.1049-0.5199 0.73074-0.30916 1.1113-0.35352h0.67578l0.48828 5.8477 0.66992-5.877h-0.0039063c0.030948-0.38283-0.15063-0.89584 0.24805-1.1191l1.1387-0.041016z" fill="#363636"/>
</svg>
